packages/katcn/src/icons/svg/penTool.svg

<svg width="24" height="25" viewBox="0 0 24 25" fill="none" xmlns="http://www.w3.org/2000/svg">
<path d="M21.6981 13.4032C21.2955 13.0046 20.5911 13.0046 20.1885 13.4032L14.3516 19.1819L13.6472 18.4845C12.8421 17.6874 11.9364 17.1893 11.0306 16.8904C9.52108 16.4918 7.91089 16.2926 6.70325 16.2926C6.50198 16.2926 6.20007 16.0933 6.20007 15.894L4.18734 6.62807L8.71598 11.1116C9.01789 11.3109 9.21917 11.4105 9.52107 11.4105C9.82298 11.4105 10.0243 11.3109 10.2255 11.1116C10.6281 10.7131 10.6281 10.0156 10.2255 9.61709L5.69689 5.2332L15.0561 7.22587C15.2574 7.32551 15.4586 7.52478 15.4586 7.72404C15.4586 8.82002 15.6599 10.3145 16.0624 11.809C16.2637 12.6061 16.6663 13.3035 17.1694 14.001C17.4714 14.3995 18.1758 14.4991 18.5784 14.2002C18.9809 13.9013 19.0815 13.2039 18.7796 12.8054C18.3771 12.3072 18.1758 11.809 17.9745 11.3109C17.6726 10.1153 17.4714 8.72038 17.4714 7.72404C17.3707 6.52844 16.5656 5.5321 15.358 5.33283L5.09307 3.04125C4.28798 2.84199 3.38225 3.04125 2.77843 3.73869C2.07397 4.33649 1.8727 5.2332 2.07397 6.03027L4.28798 16.2926C4.48925 17.4882 5.49561 18.2852 6.70325 18.3849C7.70962 18.3849 9.21917 18.5841 10.5274 18.9827C11.1313 19.1819 11.7351 19.5805 12.2383 20.0786L12.9427 20.7761L12.5402 21.1746C12.1376 21.5731 12.1376 22.2706 12.5402 22.6691C12.7414 22.8684 13.0434 22.968 13.2446 22.968C13.4459 22.968 13.7478 22.8684 13.9491 22.6691L21.6981 14.9973C22.1006 14.4991 22.1006 13.8017 21.6981 13.4032Z" fill="black"/>
</svg>

<svg xmlns="http://www.w3.org/2000/svg" fill="none" viewBox="0 0 24 25"><path fill="#000" d="M21.698 13.403a1.1 1.1 0 0 0-1.51 0l-5.836 5.779-.705-.697a6.6 6.6 0 0 0-2.616-1.595c-1.51-.398-3.12-.597-4.328-.597-.201 0-.503-.2-.503-.399L4.187 6.628l4.529 4.484c.302.199.503.299.805.299s.503-.1.704-.3a1.076 1.076 0 0 0 0-1.494L5.698 5.233l9.36 1.993c.2.1.402.299.402.498 0 1.096.2 2.59.603 4.085.202.797.604 1.495 1.107 2.192.302.399 1.007.498 1.41.2.402-.3.502-.997.2-1.396-.402-.498-.603-.996-.805-1.494-.301-1.196-.503-2.59-.503-3.587-.1-1.196-.905-2.192-2.113-2.391L5.093 3.04c-.805-.199-1.71 0-2.315.698-.704.597-.905 1.494-.704 2.291l2.214 10.263c.201 1.195 1.208 1.992 2.415 2.092 1.007 0 2.516.2 3.824.598.604.199 1.208.598 1.711 1.096l.705.697-.403.399a1.076 1.076 0 0 0 0 1.494c.201.2.503.299.705.299.2 0 .503-.1.704-.299l7.75-7.672c.402-.498.402-1.195 0-1.594"/></svg>
